lib/brands/icons/yandex-music.svg

<svg xmlns="http://www.w3.org/2000/svg" fill="none" aria-hidden="true" viewBox="0 0 48 48"><g id="yandex_music-Icon"><path id="bg" fill="#FFCC00" d="M23.5503 45.0001C33.243 45.0001 41.1005 37.4398 41.1005 28.1137C41.1005 18.7876 33.243 11.2273 23.5503 11.2273C13.8575 11.2273 6 18.7876 6 28.1137C6 37.4398 13.8575 45.0001 23.5503 45.0001Z"/><path id="vector" fill="#FF3333" fill-rule="evenodd" d="M32.5498 10.9155V26.6692C32.5498 28.2546 32.431 29.7332 32.2088 30.4873C31.6475 32.3826 30.431 34.0369 28.7604 35.1771C27.0897 36.3172 25.0649 36.8749 23.0203 36.758C20.9757 36.6412 19.0337 35.8568 17.515 34.5344C15.9964 33.2121 14.992 31.4308 14.6677 29.485C14.3435 27.5391 14.7187 25.545 15.7316 23.8321C16.7444 22.1192 18.3342 20.7899 20.2384 20.0639C22.1425 19.3379 24.2471 19.2585 26.2044 19.839C28.1618 20.4194 29.8548 21.6249 31.0038 23.2563L30.7508 21.7717V3L41.9999 6.46338V13.8251L32.5498 10.9155Z" clip-rule="evenodd"/></g></svg>

<svg xmlns="http://www.w3.org/2000/svg" fill="none" aria-hidden="true" viewBox="0 0 48 48"><path fill="#FC0" d="M23.55 45c9.693 0 17.55-7.56 17.55-16.886s-7.857-16.887-17.55-16.887C13.857 11.227 6 18.787 6 28.114 6 37.44 13.857 45 23.55 45Z"/><path fill="#F33" fill-rule="evenodd" d="M32.55 10.915V26.67c0 1.586-.119 3.064-.341 3.818a8.674 8.674 0 0 1-3.449 4.69 9.258 9.258 0 0 1-5.74 1.581 9.184 9.184 0 0 1-5.505-2.224 8.57 8.57 0 0 1-2.847-5.049 8.381 8.381 0 0 1 1.064-5.653 8.905 8.905 0 0 1 4.506-3.768 9.332 9.332 0 0 1 5.966-.225 8.98 8.98 0 0 1 4.8 3.417l-.253-1.484V3L42 6.463v7.362l-9.45-2.91Z" clip-rule="evenodd"/></svg>
